X:1
T:My Boy Billy
M:4/4
L:1/8
K:C
 G2| G2 GA B2 cc| d2 ded-BB-A| G2 GG c2 ee| e d3 z2| de| g2 B2 B2A-G|\
 c2e-e d2 Bc| d2 BB AA dc| B G3 z2||
